X:81
T:Gadlars
Reghe
Z:id:hn-slide-88
M:6/8
L:1/8
K:D
d2A ABG |d3 AGA | BdB AGE | A2D E2D ||
|: G


*****************************


0 3 2.4911754 

<start>
|:F2d2 edB|A2A F2A|B2A bEd|c3 B2d|e2e d2B|~A3 ABd|1 c3 e3:|2 a3 aga||
B2c G2g|age dBG|1 G3 G2d:|2


*****************************


100 3 1.3398445 

<start>
